X:383
T:Reel 383
M:4/4
K:Emin
L:1/8
BA|GE^DE B,EDE|FD (3DDD FDAD|GE^DE B,EDE|AFdF A2BA|GE^DE B,EDE|FD (3DDD FDAF| (3EFE AF GF (3GAB  (3^cdB | (3cBA  (3AGF GEE2|FD (3DCD DFDF|GGAB cBA2 (3FDD |EFGA BcdB|AFDF AEE2|GB (3GFG BG (3FGA |B^def gefd| (3efe  (3dcd  (3cde  (3d^cB |AFDF Aee2|
